X: 21877
T: Kiss My Love And Her Apron On
R: jig
M: 6/8
K: Gmajor
|:G2G G2A|B>cB AGE|DGA (3B/c/B/AG|B>GE E2D|
G2G G2A|B>cB AGE|DGA (3B/c/B/AG|B>GE E2D:|
|:e2f g2a|b>gd e2d|e2f g2b|bee e2d|
e2f g2a|b>gd e>fg|d>BG A>GA|1 B>GE E2d:|2 B>GE E3||

